X: 33
T:Schottis frn Blyberg
M:2/4
L:1/16
Q:75
C:
S:
R:Schottis
O:Sweden
A:Dalarna
N:Upptecknad av Crex
K:D
DFAF DFAF | GABA G2G2 | Acec Acec | defe d2d2 |\
DFAF DFAF | GABA G2G2 | Acec Acec | d2d2 d2A2 ::
A2(3fff f-edc | B2(3ggg g-fed | c2a2 a2^ga | b-afd A2A2 |\
A2(3fff f-edc | B2(3ggg g-fed | c2aa a-gec |1 d2d2 d2A2 :|2 d2d2 d2 z2 |
